icons/svg/clock-fast.svg

﻿<?xml version="1.0" encoding="utf-8"?>
<!DOCTYPE svg PUBLIC "-//W3C//DTD SVG 1.1//EN" "http://www.w3.org/Graphics/SVG/1.1/DTD/svg11.dtd">
<svg xmlns="http://www.w3.org/2000/svg" xmlns:xlink="http://www.w3.org/1999/xlink" version="1.1" baseProfile="full" width="24" height="24" viewBox="0 0 24.00 24.00" enable-background="new 0 0 24.00 24.00" xml:space="preserve">
	<path fill="#000000" fill-opacity="1" stroke-width="0.2" stroke-linejoin="round" d="M 15,4C 19.4183,4 23,7.58172 23,12C 23,16.4183 19.4183,20 15,20C 10.5817,20 7,16.4183 7,12C 7,7.58172 10.5817,4 15,4 Z M 15,6.00001C 11.6863,6.00001 9,8.6863 9,12C 9,15.3137 11.6863,18 15,18C 18.3137,18 21,15.3137 21,12C 21,8.6863 18.3137,6.00001 15,6.00001 Z M 14,8.00001L 15.5,8.00001L 15.5,11.7818L 17.8311,14.1129L 16.7704,15.1736L 14,12.4031L 14,8.00001 Z M 2,18C 1.44771,18 1,17.5523 1,17C 1,16.4477 1.44771,16 2,16L 5.83209,16C 6.14405,16.714 6.53698,17.3845 6.99927,18L 2,18 Z M 2.99999,13C 2.44771,13 2,12.5523 2,12C 2,11.4477 2.44771,11 2.99999,11L 5.04937,11L 5,12L 5.04938,13L 2.99999,13 Z M 3.99999,8.00004C 3.44771,8.00004 2.99999,7.55232 2.99999,7.00004C 2.99999,6.44775 3.44771,6.00004 3.99999,6.00004L 6.99925,6.00002C 6.53697,6.61548 6.14404,7.28602 5.83208,8.00003L 3.99999,8.00004 Z "/>
</svg>

<svg xmlns="http://www.w3.org/2000/svg" version="1.1" baseProfile="full" width="24" height="24" viewBox="0 0 24.00 24.00" xml:space="preserve"><path fill="#000" fill-opacity="1" stroke-width=".2" stroke-linejoin="round" d="M15 4c4.418 0 8 3.582 8 8s-3.582 8-8 8-8-3.582-8-8 3.582-8 8-8zm0 2c-3.314 0-6 2.686-6 6s2.686 6 6 6 6-2.686 6-6-2.686-6-6-6zm-1 2h1.5v3.782l2.33 2.33-1.06 1.062-2.77-2.77V8zM2 18c-.552 0-1-.448-1-1s.448-1 1-1h3.832c.312.714.705 1.384 1.167 2H2zm1-5c-.552 0-1-.448-1-1s.448-1 1-1h2.05L5 12l.05 1H3zm1-5c-.552 0-1-.448-1-1s.448-1 1-1h3c-.463.615-.856 1.286-1.168 2H4z"/></svg>
